!!!OTL: 632. Das Laemmchen.
!!!COM: A. W. Erk
!!!ODT: 1800 (vor)
!!!ARE: Europa, Mitteleuropa, Deutschland
!!!SCT: B0632
!!!TXL: @@DE
!!!YEM: Copyright 1995, estate of Helmut Schaffrath.
**kern	**text
*ICvox	*
*Ivox	*
*clefG2	*
*M2/4	*
*k[f#]	*
*G:	*
!LO:TX:a:t=Mäßig.	!
{8d	Ein
=1	=1
8g	jun-
8g	-ges
8f#	Lämmchen,
8d	.
=2	=2
8b	weiß
8b	wie
8a}	Schnee,
{8dd	ging
=3	=3
8cc	einſt
8b	mit
8a	auf
8g	die
=4	=4
4b	Wei-
8a}	-de;
{8d	muth-
=5	=5
8cc	-wil-
8cc	-lig
8b	ſprang
8g	es
=6	=6
8ee	in
8ee	den
8.dd}	Klee
{16cc	mit
=7	=7
8b	aus-
8g	-ge-
8a	-laſſ'-
8f#	-ner
=8	=8
4a	Freu-
8g}	-de.
==	==
!!!AGN: Kinder - Lied, Tier
!!!GTL: Kinderlieder
!!!ONB: ESAC (Essen Associative Code) Database: BOEHME
!!!AMT: simple duple
!!!AIN: vox
!!!EED: Helmut Schaffrath
!!!EEV: 1.0
!!@@COMMENT:"Gedicht von Fr. Justin Bertuch (in Weimar) vor 1772. Schon gedruckt in Wiegenliederchen". Altenburg 1772, S. 30."
!!@@END:
!!!Text: F. J. Bertuch
!!!URL-scan: https://archive.org/details/BoehmeVtLieder1895/page/n495/mode/2up
!!!ENC: Anna Maria Matuszewska
!!!EEV: 2024/12/07
*-	*-
